X: 33380
T: Queen Victoria's Fiddler
R: strathspey
M: 4/4
K: Fmajor
B/|;A<F F>B A/B/c/A/ F>A|B<G G>A B>c d<f|A<F F>B A/B/c/A/ F>A|1 B<d c>B A<F F>B:|2 B<d c>B A<F F>c||
f>c f/g/a/g/f2c>B|A>F d/c/B/A/ B<G G>c|f>c f/g/a/g/f2c>f|d/c/B/A/ G<c A>F F>c|
f>c f/g/a/g/f2c>f|b>g b/a/g/f/ e<g gf/e/|(3dBd (3def c>A f>A|d/c/B/A/ G<c A>F F>||

